assets/img/braze_icons/link-broken-02.svg

<svg fill="none" height="24" viewBox="0 0 24 24" width="24" xmlns="http://www.w3.org/2000/svg"><g clip-rule="evenodd" fill="#801ed7" fill-rule="evenodd"><path d="m16.2071 7.79287c.3905.39053.3905 1.02369 0 1.41421l-6.99999 7.00002c-.39053.3905-1.02369.3905-1.41422 0-.39052-.3905-.39052-1.0237 0-1.4142l7.00001-7.00003c.3905-.39052 1.0237-.39052 1.4142 0z"/><path d="m9 1c.55229 0 1 .44772 1 1v2c0 .55228-.44771 1-1 1-.55228 0-1-.44772-1-1v-2c0-.55228.44772-1 1-1z"/><path d="m15 19c.5523 0 1 .4477 1 1v2c0 .5523-.4477 1-1 1s-1-.4477-1-1v-2c0-.5523.4477-1 1-1z"/><path d="m2 8h2c.55228 0 1 .44772 1 1s-.44772 1-1 1h-2c-.55228 0-1-.44771-1-1 0-.55228.44772-1 1-1z"/><path d="m19 15c0-.5523.4477-1 1-1h2c.5523 0 1 .4477 1 1s-.4477 1-1 1h-2c-.5523 0-1-.4477-1-1z"/><path d="m2.79289 2.79289c.39053-.39052 1.02369-.39052 1.41422 0l1.41421 1.41422c.39052.39052.39052 1.02369 0 1.41421s-1.02369.39052-1.41421 0l-1.41422-1.41421c-.39052-.39053-.39052-1.02369 0-1.41422z"/><path d="m18.3787 18.3786c.3905-.3905 1.0237-.3905 1.4142 0l1.4142 1.4142c.3906.3905.3906 1.0237 0 1.4142-.3905.3905-1.0237.3905-1.4142 0l-1.4142-1.4142c-.3905-.3905-.3905-1.0237 0-1.4142z"/><path d="m13.4142 3.51463c1.9527-1.95262 5.1185-1.95262 7.0711 0s1.9526 5.11845 0 7.07107l-2.1213 2.1213c-.3905.3905-1.0237.3905-1.4142 0s-.3905-1.0237 0-1.4142l2.1213-2.12132c1.1716-1.17157 1.1716-3.07106 0-4.24264-1.1716-1.17157-3.0711-1.17157-4.2426 0l-2.1214 2.12133c-.3905.39052-1.0236.39052-1.4142 0-.3905-.39053-.3905-1.02369 0-1.41422zm-6.36391 7.77817c.39052.3905.39052 1.0237 0 1.4142l-2.12132 2.1213c-1.17158 1.1716-1.17158 3.0711 0 4.2427 1.17157 1.1716 3.07106 1.1716 4.24264 0l2.12129-2.1213c.3906-.3906 1.0237-.3906 1.4142 0 .3906.3905.3906 1.0236 0 1.4142l-2.1213 2.1213c-1.9526 1.9526-5.11843 1.9526-7.07105 0s-1.95262-5.1185 0-7.0711l2.12132-2.1213c.39053-.3905 1.02369-.3905 1.41422 0z"/></g></svg>

<svg width="24" height="24" viewBox="0 0 24 24" fill="none" xmlns="http://www.w3.org/2000/svg">
<path fill-rule="evenodd" clip-rule="evenodd" d="M16.2071 7.79287C16.5976 8.1834 16.5976 8.81656 16.2071 9.20708L9.20711 16.2071C8.81658 16.5976 8.18342 16.5976 7.79289 16.2071C7.40237 15.8166 7.40237 15.1834 7.79289 14.7929L14.7929 7.79287C15.1834 7.40235 15.8166 7.40235 16.2071 7.79287Z" fill="#801ED7"/>
<path fill-rule="evenodd" clip-rule="evenodd" d="M9 1C9.55229 1 10 1.44772 10 2V4C10 4.55228 9.55229 5 9 5C8.44772 5 8 4.55228 8 4V2C8 1.44772 8.44772 1 9 1Z" fill="#801ED7"/>
<path fill-rule="evenodd" clip-rule="evenodd" d="M15 19C15.5523 19 16 19.4477 16 20V22C16 22.5523 15.5523 23 15 23C14.4477 23 14 22.5523 14 22V20C14 19.4477 14.4477 19 15 19Z" fill="#801ED7"/>
<path fill-rule="evenodd" clip-rule="evenodd" d="M2 8H4C4.55228 8 5 8.44772 5 9C5 9.55228 4.55228 10 4 10H2C1.44772 10 1 9.55229 1 9C1 8.44772 1.44772 8 2 8Z" fill="#801ED7"/>
<path fill-rule="evenodd" clip-rule="evenodd" d="M19 15C19 14.4477 19.4477 14 20 14H22C22.5523 14 23 14.4477 23 15C23 15.5523 22.5523 16 22 16H20C19.4477 16 19 15.5523 19 15Z" fill="#801ED7"/>
<path fill-rule="evenodd" clip-rule="evenodd" d="M2.79289 2.79289C3.18342 2.40237 3.81658 2.40237 4.20711 2.79289L5.62132 4.20711C6.01184 4.59763 6.01184 5.2308 5.62132 5.62132C5.2308 6.01184 4.59763 6.01184 4.20711 5.62132L2.79289 4.20711C2.40237 3.81658 2.40237 3.18342 2.79289 2.79289Z" fill="#801ED7"/>
<path fill-rule="evenodd" clip-rule="evenodd" d="M18.3787 18.3786C18.7692 17.9881 19.4024 17.9881 19.7929 18.3786L21.2071 19.7928C21.5977 20.1833 21.5977 20.8165 21.2071 21.207C20.8166 21.5975 20.1834 21.5975 19.7929 21.207L18.3787 19.7928C17.9882 19.4023 17.9882 18.7691 18.3787 18.3786Z" fill="#801ED7"/>
<path fill-rule="evenodd" clip-rule="evenodd" d="M13.4142 3.51463C15.3669 1.56201 18.5327 1.56201 20.4853 3.51463C22.4379 5.46725 22.4379 8.63308 20.4853 10.5857L18.364 12.707C17.9735 13.0975 17.3403 13.0975 16.9498 12.707C16.5593 12.3165 16.5593 11.6833 16.9498 11.2928L19.0711 9.17148C20.2427 7.99991 20.2427 6.10042 19.0711 4.92884C17.8995 3.75727 16 3.75727 14.8285 4.92884L12.7071 7.05017C12.3166 7.44069 11.6835 7.44069 11.2929 7.05017C10.9024 6.65964 10.9024 6.02648 11.2929 5.63595L13.4142 3.51463ZM7.05029 11.2928C7.44081 11.6833 7.44081 12.3165 7.05029 12.707L4.92897 14.8283C3.75739 15.9999 3.75739 17.8994 4.92897 19.071C6.10054 20.2426 8.00003 20.2426 9.17161 19.071L11.2929 16.9497C11.6835 16.5591 12.3166 16.5591 12.7071 16.9497C13.0977 17.3402 13.0977 17.9733 12.7071 18.3639L10.5858 20.4852C8.6332 22.4378 5.46737 22.4378 3.51475 20.4852C1.56213 18.5326 1.56213 15.3667 3.51475 13.4141L5.63607 11.2928C6.0266 10.9023 6.65976 10.9023 7.05029 11.2928Z" fill="#801ED7"/>
</svg>
